X:1
T:Felici gl'animi
T:Felici gl'animi
T:Gio.Girolamo Kapsperger
C:Gio.Girolamo Kapsperger
%%score [ 1 2 ] { ( 3 5 ) | 4 }
L:1/8
Q:1/4=120
M:4/4
K:C
V:1 treble nm="Soprano 1" snm="S 1"
V:2 treble nm="Soprano 2" snm="S 2"
V:3 treble nm="BC" snm="BC"
V:5 treble 
V:4 bass 
V:1
 z2 G2 G2 A2 | B3 B B2 B2 | A2 G2 A3 A | A2 A2 A2 B2 | G3 ^F G2 A2 | A3 G G3 G | G6 G2 | %7
w: Fe- li- ci|gl'a- ni- mi, che|greg- gie gui- da-|no, ne cu- re|sa- ni- mi, nel|pet- to'an- ni- da-|no, di|
w: Del duo' si|ri- do- no, il|sen tran- quil- la-|no, le noi an-|ci- da- no, d'ar-|dor sfa- vil- la-|no, ch'a-|
w: Qui nem- bi'hor-|ri- bi- li, non|si rag- gi- ra-|no, ne cru- di|si- bi- li, i|ven- ti spi- ra-|no, ma|
 G2 A2 B3 B | B2 B2 B2 ^c2 | d3 d d2 A2 | A2 B2 c3 c | c2 c2 B3 A | A3 A A4 :: z2 A2 A2 A2 | %14
w: se pia- ce- vo-|li, i gior- ni|me- na- no, e|di- let- te- vo-|li, i cor se-|re- na- no.|O pia- cer|
w: ler va- ghis- si-|mo, il cie- lo'in-|do- ra- si, ch'a-|lor bel- lis- si-|mo, il pra- to'i|fio- ra- si.||
w: nu- dre l'a- ri-|a, d'o- do- ri|no- bi- le, ne'|scher- zi va- ri-|a, a- pril' im-|mo- bi- le.||
 A3 A A2 A2 | G2 F2 EDEF | G3 A A3 G | G6 A2 | A2 A2 A3 A | A2 B2 c2 d2 | G6 A2 | A3 G G4 :| z8 |] %23
w: sta- bi- le, O|po- ver- ta _ _ _|_ d'a- ma- bi-|le. O|pia- cer sta- bi-|le, O po- ver-|ta d'a-|ma- bi- le.||
w: |||||||||
w: |||||||||
V:2
 z2 G2 G2 ^F2 | G3 G G2 G2 | ^F2 E2 F3 F | ^F2 F2 F2 G2 | E3 D E2 G2 | G3 ^F G3 G | G6 G2 | %7
w: Fe- li- ci|gl'a- ni- mi, che|greg- gie gui- da-|no, ne cu- re|sa- ni- mi, nel|pet- to'an- ni- da-|no di|
w: Del duo' si|ri- do- no, il|sen tran- quil- la-|no, le noi an-|ci- da- no, d'ar-|dor sfa- vi- la-|no, ch'a-|
w: Qui nem- bi'hor-|ri- bi- li, non|si rag- gi- ra-|no, ne cru- di|si- bi- li, i|ven- ti spi- ra-|no, ma|
 G2 ^F2 G3 G | G2 A2 G3 G | ^F3 F F2 F2 | ^F2 ^G2 A3 A | A2 A2 A3 ^G | A3 A A4 :: z8 | z8 | z8 | %16
w: se pia- ce- vo-|li, i gior- ni|me- na- no, e|di- let- te- vo-|li, i cor se-|re- na- no||||
w: ler va- ghis- si-|mo, il cie- lo'in-|do- ra- si, ch'a-|lor bel- lis- si-|mo, il pra- to'i|fio- ra- si.||||
w: nu- dre l'a- ri-|a, d'o- do- ri|no- bi- le, ne'|scher- zi va- ri-|a, a- pril' im-|mo- bi- le.||||
 z8 | z4 z2 F2 | F2 F2 F3 F | F2 G2 G2 F2 | E6 G2 | G3 ^F G4 :| z8 |] %23
w: |O|pia- cer sta- bi-|le, O po- ver-|* d'a-|ma- bi- le.||
w: |||||||
w: |||||||
V:3
 [GBd]8 | [GBd]8 | [DB]4 [^FA]4 | [^FAd]6 [GB]2 | [EG]8 | d4 [Bd]4 | [GBd]6 [DB]2 | %7
 [Gd]2 [^FA]2 [DB]4 | [GBd]2 [Ad]2 [GB]2 [G^c]2 | [^FAd]8 | [Ec]2 [^GB]2 [Ec]2 [Ac]2 | %11
 c2 A2 A2 ^G2 | [CEA]8 :: [FAc]8 | [Ac]6 [FAc]2 | [GB]2 [Fd]2 [Gc]4 | G4 d4 | [DGB]6 [Ac]2 | %18
 [FAc]8 | [Ac]2 [GB]2 [CG]2 [FA]2 | [EGc]6 [EGc]2 | d4 [GBd]4 :| z8 |] %23
V:4
 G,,8 | G,,8 | G,,4 D,4 | D,8 | C,8 | [D,A,]4 G,,4 | G,,8 | G,8 | G,2 F,2 E,4 | D,8 | %10
 C,2 B,,2 A,,2 B,,2 | C,2 D,2 [E,B,]4 | A,,8 :: F,8 | F,6 F,2 | E,2 D,2 C,4- | C,4 [D,A,]4 | %17
 G,,6 F,2 | F,8 | F,4 E,2 D,2 | C,4 C,4 | [D,A,]4 [G,,G,]4 :| z8 |] %23
V:5
 x8 | x8 | x8 | x8 | x8 | G2 ^F2 G4 | x8 | x8 | x8 | x8 | x8 | E2 C2 E4 | x8 :: x8 | x8 | x8 | %16
 E4 G2 ^F2 | x8 | x8 | x8 | x8 | G2 ^F2 G4 :| x8 |] %23

